X:1
T:[ID 4-35r]
T:[ID 4-35r]
T:Bezeichnung standardisiert: Menuett Notat ohne Bezeichnung [= Menuet] In dieser Quelle auch als: Menuett (Anm. S. Wascher);
T:Urheber unbekannt Datum in der hier transkribierten schriftlichen Quelle: 1767
C:Urheber unbekannt
C:Datum in der hier transkribierten schriftlichen Quelle: 1767
L:1/8
M:none
K:D
V:1 treble 
V:1
 f4 dF | DF ce d2 | f4 dF | DF ce d2 | g2 g2 ec | f2 f2 dF | cd e2 d2 | c6 :: c4 AF | GEGB [EA]2 | %10
 c4 AF | GEGB [EA]2 | f4 dF | DFAc d2 | f4 dF | geGE F2 | cede G2 | E2 F4 | F2 F2 F2 | F4 c2 | %20
 dfdFGE | F4 c2 | dfdFGE | F2 Fcde | f2 e2 d2 | c6 :: de f2 f2 | g2 e4 | f2 d4 | e2 c4 | F2 F2 F2 | %31
 F4 c2 | dfdFGE | F6 :| !fermata!x | %35

